public/images/account.svg

<svg aria-hidden="true" focusable="false" data-prefix="far" data-icon="user-circle" class="svg-inline--fa fa-user-circle fa-w-16" role="img" xmlns="http://www.w3.org/2000/svg" viewBox="0 0 496 512"><path fill="currentColor" d="M248 104c-53 0-96 43-96 96s43 96 96 96 96-43 96-96-43-96-96-96zm0 144c-26.5 0-48-21.5-48-48s21.5-48 48-48 48 21.5 48 48-21.5 48-48 48zm0-240C111 8 0 119 0 256s111 248 248 248 248-111 248-248S385 8 248 8zm0 448c-49.7 0-95.1-18.3-130.1-48.4 14.9-23 40.4-38.6 69.6-39.5 20.8 6.4 40.6 9.6 60.5 9.6s39.7-3.1 60.5-9.6c29.2 1 54.7 16.5 69.6 39.5-35 30.1-80.4 48.4-130.1 48.4zm162.7-84.1c-24.4-31.4-62.1-51.9-105.1-51.9-10.2 0-26 9.6-57.6 9.6-31.5 0-47.4-9.6-57.6-9.6-42.9 0-80.6 20.5-105.1 51.9C61.9 339.2 48 299.2 48 256c0-110.3 89.7-200 200-200s200 89.7 200 200c0 43.2-13.9 83.2-37.3 115.9z"></path></svg>

<?xml version="1.0" encoding="utf-8"?>
<!-- Generator: Adobe Illustrator 24.1.2, SVG Export Plug-In . SVG Version: 6.00 Build 0)  -->
<svg version="1.1" id="Livello_1" focusable="false"
	 xmlns="http://www.w3.org/2000/svg" xmlns:xlink="http://www.w3.org/1999/xlink" x="0px" y="0px" viewBox="0 0 496 512"
	 style="enable-background:new 0 0 496 512;" xml:space="preserve">
<style type="text/css">
	.st0{fill:#FF5A5F;}
</style>
<path class="st0" d="M248,104c-53,0-96,43-96,96s43,96,96,96s96-43,96-96S301,104,248,104z M248,248c-26.5,0-48-21.5-48-48
	s21.5-48,48-48s48,21.5,48,48S274.5,248,248,248z M248,8C111,8,0,119,0,256s111,248,248,248s248-111,248-248S385,8,248,8z M248,456
	c-49.7,0-95.1-18.3-130.1-48.4c14.9-23,40.4-38.6,69.6-39.5c20.8,6.4,40.6,9.6,60.5,9.6s39.7-3.1,60.5-9.6
	c29.2,1,54.7,16.5,69.6,39.5C343.1,437.7,297.7,456,248,456z M410.7,371.9c-24.4-31.4-62.1-51.9-105.1-51.9c-10.2,0-26,9.6-57.6,9.6
	c-31.5,0-47.4-9.6-57.6-9.6c-42.9,0-80.6,20.5-105.1,51.9C61.9,339.2,48,299.2,48,256c0-110.3,89.7-200,200-200s200,89.7,200,200
	C448,299.2,434.1,339.2,410.7,371.9z"/>
</svg>
